svg/fluentui-system-icons/ic_fluent_device_meeting_room_48_regular.svg

<svg width="48" height="48" viewBox="0 0 48 48" fill="none" xmlns="http://www.w3.org/2000/svg">
<path d="M14.7067 6C12.0184 6 9.66554 7.8059 8.97058 10.4026L4.21487 28.172C3.15771 32.122 6.13456 36 10.2239 36H37.7761C41.8654 36 44.8423 32.122 43.7851 28.172L39.0294 10.4026C38.3345 7.8059 35.9816 6 33.2933 6H14.7067ZM11.3858 11.0488C11.7881 9.54552 13.1503 8.5 14.7067 8.5H33.2933C34.8497 8.5 36.2119 9.54552 36.6142 11.0488L41.3699 28.8183C42.0022 31.1807 40.2218 33.5 37.7761 33.5H10.2239C7.77818 33.5 5.99782 31.1807 6.63007 28.8183L11.3858 11.0488ZM13.2487 38C12.5583 38 11.9987 38.5596 11.9987 39.25C11.9987 39.9404 12.5583 40.5 13.2487 40.5H34.7504C35.4408 40.5 36.0005 39.9404 36.0005 39.25C36.0005 38.5596 35.4408 38 34.7504 38H13.2487Z" fill="#212121"/>
</svg>

<svg xmlns="http://www.w3.org/2000/svg" width="48" height="48"><path d="M14.707 6a5.938 5.938 0 0 0-5.736 4.403L4.215 28.172C3.158 32.122 6.135 36 10.224 36h27.552c4.09 0 7.066-3.878 6.01-7.828l-4.757-17.77A5.938 5.938 0 0 0 33.293 6H14.707Zm-3.321 5.049a3.438 3.438 0 0 1 3.32-2.549h18.587a3.438 3.438 0 0 1 3.321 2.549l4.756 17.77a3.72 3.72 0 0 1-3.594 4.681H10.224a3.72 3.72 0 0 1-3.594-4.682l4.756-17.77ZM13.249 38a1.25 1.25 0 1 0 0 2.5H34.75a1.25 1.25 0 1 0 0-2.5h-21.5Z"/></svg>
